X:1
T:A LITTLE FURTHER IN THE FIRE
L:1/8
M:4/4
I:linebreak $
K:G
V:1 treble nm="ddle" snm="ddle"
V:1
 GA | BdBA G2 E2 | GAGE D4 | DE G2 B3 c | B2 A4 GA |$ BdBA G2 E2 | GAGE D4 | DE G2 B3 G2 | %8
 A2 G4 ::$ GA | B d3 d2 d2 | ed B2 d4 | g3 d | e2 d4 d2 |$ B d3 d2 d2 | ed B2 d4 | B2 B2 B3 d | %17
 A2 G6 :| %18
